!!!OTL: DIE GASSEN SEIN SO ENGE
!!!ARE: Europa, Mitteleuropa, Deutschland, Insel Ruegen
!!!SCT: E0107C
!!!YEM: Copyright 1995, estate of Helmut Schaffrath.
**kern
*ICvox
*Ivox
*M6/8
*k[f#]
*G:
{8d
=1
8d
8g
8g
8f#
8cc
8a
=2
8f#
8d
4.r}
{8d
=3
8d
8g
8g
8f#
8cc
8a
=4
8f#
8d
4.r}
{8d
=5
4b
8g
4b
8g
=6
4cc
8b
4a}
{8b
=7
8g
8f#
8e
8d
8g
8g
=8
8a
8g
8f#
4g}
==
!!!AGN: erzaehlendes Volks - Lied, Sage, Liebe, Leid, Tod, Ballade ?
!!!ONB: ESAC (Essen Associative Code) Database: ERK1
!!!AMT: compound duple
!!!AIN: vox
!!!EED: Helmut Schaffrath
!!!EEV: 1.0
*-
